X:1
T:I Don't Know How To Love Him
T:I Don't Know How To Love Him
T:Andrew Lloyd Webber, Tim Rice
C:Andrew Lloyd Webber, Tim Rice
Z:All Rights Reserved
L:1/8
M:4/4
K:F
V:1 treble nm="Piano"
%%MIDI program 0
V:1
"^N.C." dc |"Am" c3 c"Dm" F3 F |"Bb" B2 A2"F" G2 F2 |"C7" G8- | G8 |"F" A4 BAGF |"Bb" d4"F" c4 | %7
w: |||||I don't know how to|love him|
w: |||||||
"Bb" z2 BA G2 AB |"F" A4"C" G2 ED |"F" C4"C" z AAG |"F" C4-"C" C z AB |"Am" c3 c"Dm" F2- F/G/F | %12
w: what to do, how to|move him I've been|changed yes, real- ly|changed * in these|past few days * when I've|
w: |||||
"Am" c3 c"Dm" F3 G |"Bb" B2 A2"F" G2 F2 |"C7" G6 z2 |"F" A4 BAGF |"Bb" d4"F" c4 |"Bb" z2 BA G2 AB | %18
w: seen my- self I|seem like some- one|else|I dont know how to|take this|I dont see why he|
w: ||||||
"F" A4"C" G2 ED |"F" C4"C" z AAG |"F" C4-"C" C z AB |"Am" c3 c"Dm" F<F- F2 |"Am" c3 c"Dm" F3 F | %23
w: moves me Hes a|man he's just a|man * and I've|had so man- y- *|men be- fore in|
w: |||||
"Bb" B2 A2"F" G2 F2 |"C7" G4 z"Bb" F"^(lower"FF |"F" F6 z2 |:"Bb" z2 FF D F2 G- | %27
w: ve- ry man- y|ways He's just one|more|Should I bring him down-|
w: ||||
"A7" F2 GG E G2 A- |"Dm" A2 AA F A2 B- |"Bb" BBBA B2 c2- |"F" cccc"Eb" _e e3 |"Bb" d2 Bc-"F" c4 | %32
w: * should * scream and shout|* should I speak of love|* let my feel- ings out?|* I nev- er thought I'd|come to this *|
w: |||||
"Bb" B2 A2"F" G3 F |"Gm" G8- |"C7" G4 z4 |"F" A3 A BAGF |"Bb" d4"F" c4 |"Bb" z2 BA GGAB | %38
w: Whats it al a-|bout||Dont you think its rath- er|fun- ny|I should be in this po-|
w: |||Yet * if he said he|loved me|I'd be lost * I'd be|
"F" A4"C" G2 ED |"F" C4"C" z AAG |"F" C4-"C" C z z A |"Am" c3 c"Dm" F4 |"Am" z cdc"Dm" F4 | %43
w: si- tion?- I'm the|one who's al- ways|been * So|calm so cool|no lov- ers fool|
w: fright- ened could- n't|cope just could- n't|cope * I'd|turn my head|I'd back a- way|
"Bb" B2 A2"F" G2 F2 |"C7" G4"Bb" z FFF |1"F" F6- F2 :|2"F" F4"Bb" z AGF |"F" F4"Bb" z FC"Gm"F | %48
w: Run- ning ev- 'ry|show He scares me|so *|so. I want him|so I * him|
w: I~would- n't want to|know He scares me||||
"F" F6 z z |] %49
w: so.|
w: |

